zag1/images/icons/icon.svg

<svg width="55" height="51" viewBox="0 0 55 51" fill="none" xmlns="http://www.w3.org/2000/svg">
<path d="M37.1932 35.8472H24.2467V38.4306H37.1932V35.8472Z" fill="#E5357E"/>
<path d="M15.146 29.8985L18.2046 45.4472H43.3002L46.7498 29.8985H15.146Z" fill="#E5357E"/>
<path d="M49.2664 30.6304H12.3885C12.1939 30.6304 12.0073 30.5533 11.8698 30.4161C11.7322 30.2788 11.6549 30.0926 11.6549 29.8985C11.6549 29.7043 11.7322 29.5182 11.8698 29.3809C12.0073 29.2436 12.1939 29.1665 12.3885 29.1665H49.2664C49.4609 29.1665 49.6475 29.2436 49.7851 29.3809C49.9227 29.5182 50 29.7043 50 29.8985C50 30.0926 49.9227 30.2788 49.7851 30.4161C49.6475 30.5533 49.4609 30.6304 49.2664 30.6304Z" fill="#E5357E"/>
<path d="M24.2321 34.6968C24.1458 34.6968 24.0656 34.6968 23.981 34.6968C21.6482 34.6345 19.4179 33.7269 17.7067 32.1437C15.9955 30.5605 14.9205 28.4098 14.6825 26.0935C14.4444 23.7772 15.0596 21.4536 16.4131 19.5568C17.7666 17.66 19.7658 16.3196 22.0374 15.7862C22.0374 15.7647 22.0374 15.744 22.0374 15.7225C22.1011 13.2557 23.116 10.9084 24.8708 9.16961C26.6256 7.4308 28.985 6.43444 31.4576 6.38805C33.9303 6.34166 36.3256 7.24881 38.1447 8.92057C39.9637 10.5923 41.0663 12.8998 41.2229 15.3625C43.0083 16.0265 44.5578 17.2013 45.6771 18.7399C47.0697 20.6603 47.6997 23.0275 47.4453 25.3843C47.1909 27.7411 46.0702 29.9202 44.2997 31.5006C42.5291 33.0811 40.2344 33.9507 37.8587 33.9416C35.4831 33.9324 33.1951 33.0452 31.4368 31.4511C30.5342 32.4697 29.4253 33.2856 28.1834 33.8451C26.9415 34.4045 25.5948 34.6948 24.2321 34.6968ZM31.6345 7.68032C29.4694 7.68182 27.3904 8.52633 25.8399 10.0341C24.2895 11.5419 23.39 13.594 23.3328 15.7535C23.3328 15.9257 23.3328 16.0979 23.3372 16.2857L23.3579 16.8488L22.8012 16.9453C21.4667 17.1784 20.2095 17.7335 19.1392 18.5624C18.0689 19.3912 17.2179 20.4685 16.6603 21.7006C16.1028 22.9326 15.8556 24.282 15.9402 25.6312C16.0249 26.9803 16.4389 28.2884 17.1461 29.4414C17.8534 30.5944 18.8324 31.5575 19.998 32.2466C21.1635 32.9357 22.4803 33.33 23.8335 33.3952C25.1868 33.4604 26.5355 33.1945 27.7621 32.6206C28.9888 32.0467 30.0563 31.1823 30.8715 30.1026L31.3324 29.4929L31.8589 30.0475C32.9889 31.2396 34.448 32.0704 36.0516 32.4345C37.6551 32.7986 39.3308 32.6797 40.8666 32.0929C42.4024 31.506 43.7291 30.4777 44.6787 29.138C45.6283 27.7983 46.158 26.2075 46.2009 24.5672C46.243 22.7696 45.7006 21.0067 44.6551 19.5421C43.6095 18.0776 42.1169 16.9901 40.4004 16.4424L39.9534 16.302L39.9456 15.8362C39.9109 13.6988 39.0502 11.6573 37.543 10.1381C36.0359 8.61887 33.9988 7.73925 31.8571 7.68291L31.6345 7.68032Z" fill="#E5357E"/>
<path d="M34.5774 16.0428L43.0352 5.25278C44.0484 3.96108 45.765 3.6106 46.8706 4.47259C47.9753 5.33373 48.0504 7.08184 47.038 8.3744L38.5802 19.1644" fill="#E5357E"/>
<path d="M39.7808 23.3496L38.4862 23.2841L38.519 22.6391C38.5242 22.5393 38.5276 22.4402 38.5285 22.3429C38.5725 19.781 37.4428 17.8969 35.1704 16.7455C34.0385 16.1893 32.8135 15.8463 31.5568 15.7337L30.9113 15.6975L30.9812 14.4058L31.6267 14.4403C33.0515 14.5582 34.4414 14.9417 35.7245 15.5709C38.462 16.9488 39.8817 19.2954 39.8291 22.3644C39.8291 22.4755 39.8239 22.5901 39.8179 22.7089L39.7808 23.3496Z" fill="#E5357E"/>
</svg>

<svg width="55" height="51" fill="none" xmlns="http://www.w3.org/2000/svg"><path d="M37.193 35.847H24.247v2.584h12.946v-2.584z" fill="#E5357E"/><path d="M15.146 29.898l3.059 15.55H43.3l3.45-15.55H15.146z" fill="#E5357E"/><path d="M49.266 30.63H12.39a.734.734 0 01-.734-.732.731.731 0 01.734-.732h36.877a.734.734 0 01.734.732.731.731 0 01-.734.732z" fill="#E5357E"/><path d="M24.232 34.697h-.251a9.617 9.617 0 01-6.274-2.553 9.568 9.568 0 01-1.294-12.587 9.606 9.606 0 015.624-3.77v-.065a9.573 9.573 0 012.834-6.552 9.616 9.616 0 0113.274-.249 9.575 9.575 0 013.078 6.442 9.68 9.68 0 014.454 3.377A9.568 9.568 0 0144.3 31.5a9.617 9.617 0 01-12.863-.049 9.634 9.634 0 01-7.205 3.246zM31.634 7.68a8.32 8.32 0 00-5.794 2.354 8.284 8.284 0 00-2.507 5.72c0 .172 0 .344.004.532l.02.563-.556.096a8.318 8.318 0 00-6.14 4.756 8.277 8.277 0 003.337 10.546 8.324 8.324 0 0010.873-2.144l.461-.61.527.555a8.326 8.326 0 009.008 2.045 8.306 8.306 0 003.812-2.955 8.278 8.278 0 001.522-4.57 8.314 8.314 0 00-1.546-5.026 8.344 8.344 0 00-4.255-3.1l-.447-.14-.007-.466a8.281 8.281 0 00-2.403-5.698 8.317 8.317 0 00-5.686-2.455l-.223-.003z" fill="#E5357E"/><path d="M34.577 16.043l8.458-10.79c1.013-1.292 2.73-1.642 3.836-.78 1.104.86 1.18 2.609.167 3.901l-8.458 10.79" fill="#E5357E"/><path d="M39.78 23.35l-1.294-.066.033-.645c.005-.1.009-.199.01-.296.043-2.562-1.086-4.446-3.359-5.598a10.272 10.272 0 00-3.613-1.011l-.646-.037.07-1.291.646.034c1.424.118 2.814.502 4.098 1.13 2.737 1.379 4.157 3.725 4.104 6.794 0 .111-.005.226-.011.345l-.037.64z" fill="#E5357E"/></svg>
